src/assets/icons/sliders-h.svg

<svg width="14" height="14" viewBox="0 0 14 14" fill="none" xmlns="http://www.w3.org/2000/svg">
<g id="sliders-h">
<g clip-path="url(#clip0_156_4557)">
<path id="Vector" fill-rule="evenodd" clip-rule="evenodd" d="M5.87097 1.58062C5.87097 1.20649 5.56768 0.903198 5.19355 0.903198C4.81942 0.903198 4.51613 1.20649 4.51613 1.58062V2.25804H0.677419C0.303291 2.25804 0 2.56133 0 2.93546C0 3.30958 0.303291 3.61288 0.677419 3.61288H4.51613V4.29029C4.51613 4.66442 4.81942 4.96771 5.19355 4.96771C5.56768 4.96771 5.87097 4.66442 5.87097 4.29029V2.93546V1.58062ZM6.32258 2.93546C6.32258 2.56133 6.62587 2.25804 7 2.25804H13.3226C13.6967 2.25804 14 2.56133 14 2.93546C14 3.30958 13.6967 3.61288 13.3226 3.61288H7C6.62587 3.61288 6.32258 3.30958 6.32258 2.93546ZM6.32258 11.0645C6.32258 10.6904 6.62587 10.3871 7 10.3871H13.3226C13.6967 10.3871 14 10.6904 14 11.0645C14 11.4386 13.6967 11.7419 13.3226 11.7419H7C6.62587 11.7419 6.32258 11.4386 6.32258 11.0645ZM0.677419 10.3871C0.303291 10.3871 0 10.6904 0 11.0645C0 11.4386 0.303291 11.7419 0.677419 11.7419H4.51613V12.4193C4.51613 12.7935 4.81942 13.0967 5.19355 13.0967C5.56768 13.0967 5.87097 12.7935 5.87097 12.4193V11.0645V9.70965C5.87097 9.33552 5.56768 9.03223 5.19355 9.03223C4.81942 9.03223 4.51613 9.33552 4.51613 9.70965V10.3871H0.677419ZM10.6129 6.32255C10.2388 6.32255 9.93548 6.62584 9.93548 6.99997C9.93548 7.3741 10.2388 7.67739 10.6129 7.67739H13.3226C13.6967 7.67739 14 7.3741 14 6.99997C14 6.62584 13.6967 6.32255 13.3226 6.32255H10.6129ZM0 6.99997C0 6.62584 0.303291 6.32255 0.677419 6.32255H8.12903V5.64513C8.12903 5.27101 8.43232 4.96771 8.80645 4.96771C9.18058 4.96771 9.48387 5.27101 9.48387 5.64513V6.99997V8.35481C9.48387 8.72894 9.18058 9.03223 8.80645 9.03223C8.43232 9.03223 8.12903 8.72894 8.12903 8.35481V7.67739H0.677419C0.303291 7.67739 0 7.3741 0 6.99997Z" fill="black"/>
</g>
</g>
<defs>
<clipPath id="clip0_156_4557">
<rect width="14" height="14" fill="white"/>
</clipPath>
</defs>
</svg>

<svg xmlns="http://www.w3.org/2000/svg" fill="none" viewBox="0 0 14 14"><g clip-path="url(#a)"><path fill="#000" fill-rule="evenodd" d="M5.871 1.58a.677.677 0 1 0-1.355 0v.678H.677a.677.677 0 1 0 0 1.355h3.84v.677a.677.677 0 1 0 1.354 0V1.581m.452 1.355c0-.374.303-.677.677-.677h6.323a.677.677 0 0 1 0 1.355H7a.677.677 0 0 1-.677-.678m0 8.13c0-.375.303-.678.677-.678h6.323a.677.677 0 0 1 0 1.355H7a.677.677 0 0 1-.677-.678m-5.646-.678a.677.677 0 0 0 0 1.355h3.84v.677a.677.677 0 1 0 1.354 0V9.71a.677.677 0 1 0-1.355 0v.677zm9.936-4.064a.677.677 0 0 0 0 1.354h2.71a.677.677 0 0 0 0-1.354zM0 7c0-.374.303-.677.677-.677H8.13v-.678a.677.677 0 0 1 1.355 0v2.71a.677.677 0 1 1-1.355 0v-.678H.677A.677.677 0 0 1 0 7" clip-rule="evenodd"/></g><defs><clipPath id="a"><path fill="#fff" d="M0 0h14v14H0z"/></clipPath></defs></svg>
